svgs/thin/racquet.svg

<svg xmlns="http://www.w3.org/2000/svg" viewBox="0 0 640 512"><!--! Font Awesome Pro 6.3.0 by @fontawesome - https://fontawesome.com License - https://fontawesome.com/license (Commercial License) Copyright 2023 Fonticons, Inc. --><path d="M142.8 348.6c-7.562-10.64-22.5-13.27-33.22-5.768l-94.53 65.83c-7.811 5.531-12.1 13.81-14.56 23.22c-1.531 9.33 .6562 18.68 6.156 26.26l27.72 38.79C41.32 506.7 52.38 512 63.57 512c6.969 0 13.97-2.047 20.03-6.283l95.28-64.04c5.406-3.641 9.062-9.189 10.22-15.61c1.188-6.424-.25-12.91-4.062-18.25L142.8 348.6zM169.9 428.4l-95.4 64.12c-8.529 6.08-20.1 3.812-27.15-4.877l-27.78-38.85c-2.969-4.141-4.156-9.221-3.344-14.31c.8438-5.158 3.688-9.66 7.938-12.71l94.49-65.81c3.5-2.469 8.531-1.656 11.09 1.922l42.21 59.22c1.281 1.781 1.75 3.938 1.375 6.094C172.1 425.3 171.7 427.2 169.9 428.4zM614.6 61.09c-55.46-77.66-184.4-81.86-287.4-9.268c-76.49 53.82-91.24 101.3-106.9 151.6C208.5 241.6 196.2 280.1 155.7 328.1c-2.875 3.344-2.5 8.393 .8438 11.28s8.404 2.516 11.28-.8438c42.69-49.6 56.03-92.49 67.81-130.3c15.44-49.68 28.78-92.6 100.8-143.3c95.9-67.56 214.8-65.08 265.1 5.471c19.59 27.55 26.53 62.11 20.06 99.91c-9.498 55.65-47.93 111.9-102.7 150.5c-71.75 50.64-116.6 49.01-168.4 46.98C310.6 366.3 265.5 364.6 203.4 388.3c-4.125 1.58-6.219 6.189-4.625 10.33c1.219 3.188 4.25 5.141 7.469 5.141c.9375 0 1.906-.1719 2.844-.5313c59.09-22.55 100.6-21 140.8-19.46c52.59 1.875 102.1 3.812 178.2-49.9c59.09-41.62 98.93-100.3 109.3-160.9C644.6 130.9 636.7 92.22 614.6 61.09zM380.1 319.9c78.93 0 165.8-63.65 189.7-138.1c10.41-32.65 7.562-62.39-8.031-83.77c-15.69-21.46-43.34-33.29-77.9-33.29c-99.37 0-171.9 82.96-189.7 139C283.8 235.6 286.7 265.3 302.3 286.7C317.1 308.1 345.6 319.9 380.1 319.9zM309.4 207.7c12.69-40.06 74.21-127.9 174.4-127.9c29.31 0 52.4 9.486 64.96 26.72c12.53 17.14 14.56 41.8 5.717 69.45c-21.97 69.31-101.8 127.9-174.4 127.9c-29.25 0-52.28-9.471-64.87-26.65C302.7 260.1 300.6 235.4 309.4 207.7z"/></svg>

<svg xmlns="http://www.w3.org/2000/svg" viewBox="0 0 640 512"><!-- Font Awesome Pro 6.0.0-alpha2 by @fontawesome - https://fontawesome.com License - https://fontawesome.com/license (Commercial License) --><path d="M142.779 348.59C135.217 337.947 120.281 335.322 109.562 342.822L15.037 408.65L14.975 408.697C7.164 414.229 2.039 422.465 0.476 431.873C-1.055 441.203 1.133 450.549 6.633 458.129L34.35 496.918C41.318 506.748 52.379 512 63.566 512C70.535 512 77.533 509.953 83.596 505.717L178.871 441.672C184.277 438.031 187.934 432.482 189.09 426.061C190.277 419.637 188.84 413.15 185.027 407.807L142.779 348.59ZM169.934 428.389L74.533 492.512C66.004 498.592 53.535 496.324 47.379 487.635L19.6 448.783C16.631 444.643 15.443 439.562 16.256 434.469C17.1 429.311 19.943 424.809 24.193 421.762L118.687 355.951C122.187 353.482 127.219 354.295 129.781 357.873L171.996 417.09C173.277 418.871 173.746 421.027 173.371 423.184C172.965 425.326 171.746 427.17 169.934 428.389ZM614.592 61.092C559.127 -16.566 430.23 -20.77 327.236 51.824C250.742 105.648 235.992 153.158 220.338 203.449C208.463 241.582 196.213 280.998 155.685 328.086C152.81 331.43 153.185 336.479 156.529 339.369S164.934 341.885 167.809 338.525C210.494 288.922 223.838 246.037 235.617 208.201C251.055 158.518 264.396 115.604 336.424 64.92C432.324 -2.641 551.223 -0.156 601.562 70.391C621.154 97.943 628.092 132.496 621.623 170.303C612.125 225.955 573.689 282.217 518.881 320.834C447.135 371.471 402.232 369.844 350.484 367.812C310.613 366.281 265.459 364.609 203.369 388.332C199.244 389.912 197.15 394.521 198.744 398.664C199.963 401.852 202.994 403.805 206.213 403.805C207.15 403.805 208.119 403.633 209.057 403.273C268.146 380.723 309.676 382.27 349.891 383.816C402.482 385.691 451.947 387.629 528.098 333.916C587.187 292.297 627.029 233.645 637.404 173.006C644.621 130.918 636.717 92.223 614.592 61.092ZM380.076 319.896C459.01 319.896 545.879 256.242 569.752 180.898C580.158 148.25 577.314 118.51 561.721 97.131C546.035 75.672 518.381 63.842 483.82 63.842C384.451 63.842 311.894 146.797 294.144 202.855C283.771 235.566 286.676 265.338 302.301 286.686C317.986 308.098 345.609 319.896 380.076 319.896ZM309.394 207.701C322.08 167.645 383.607 79.846 483.82 79.846C513.131 79.846 536.223 89.332 548.785 106.57C561.314 123.713 563.346 148.375 554.502 176.021V176.037C532.535 245.35 452.666 303.893 380.076 303.893C350.828 303.893 327.799 294.422 315.205 277.246C302.676 260.102 300.613 235.41 309.394 207.701Z"/></svg>
